-----BEGIN PGP PUBLIC KEY BLOCK-----

mQINBGqYCjcBEAClPGvsGKTWNR7W4m+afkxE8LYeWB3uPK/T9MmCrN59M8IHGtfK
uOw5SNMiIl0hKXMPcYTdbXgeFYFln+QjgprmS0WsEL3J75ZsQw/doBn5izc87hBS
7D57RSVVwkGWt3bB42+/oH98r9+e8DKUgpL5f4xfdNug5OSfYgfxH+AiTmAr5Xi+
UGJDiMR+yWZu2C2EBtJhyl28Uj+/Yv88pMlcs0zGKHX9IzgHf4YChQqHVHnr5Wnv
Z5Evk7s0fpp04DS+bW3OH+KyzP/SnZ0ntRth2+1qx18qEyXzT0/XZ7kywk4/n8dE
ni2s3wGEaMxI7sX4GxxQd1eVWPtDGzeVSCwDP7ueNRTmAA17T70JK2TtiqqqK8Xq
CgHSVzKPBY1t8CPL85wFAeqpcW6CTJt3be/P+UP1e51I2tCAtSSX7k4XlGCDXBUM
R5DLFr9yfBR3/VttEu9OblH3WGxJCHZqxWpd/De9INoXWU/sF6R9UZVpIiXFoN4I
9MuU8bICTJ9TV0D0H3tgnyrB/0bAwgEY/4vvowbh0jxi62i2SbOdFJNAg8xb9Guu
tm0DN7KTqMgSF/XHLT4D+1+vXPMi2aCtbHi/LT4eEq4jNw6CYyj3vwWJSXbZWKQT
Z3pAd3iV5QFgR5Qu/OjBwB7luR+4tc8fPIGNMD0Cn9gN5JaQG9WjBBQdswARAQAB
tDFSYXZlbnJvb3QgUmVsZWFzZSBTaWduaW5nIDxyZWxlYXNlc0ByYXZlbnJvb3Qu
YWk+iQJzBBMBCABdFiEEMYQUhd5tVaUEysSy2xj6prhQg+oFAmqYCjcbFIAAAAAA
BAAObWFudTIsMi41KzEuMTIsMCwzAhsDBQkDwmcABQsJCAcCAiICBhUKCQgLAgQW
AgMBAh4HAheAAAoJENsY+qa4UIPqrdsP/3+D0nnB6yzSdwx+GzNw+UN+v1MsrIaO
pSg8dEkaM0r8RlAU17W73nAJdyckMECLc8l7ygMMd2Po2fFz4FbpY6BLYu3H8VjI
a+V+r1KBUV2+QCMc/MY2t6xpFLmVZq2qudTGlWtNuy+9SUaFFsAdVvE0DnavRddq
fwiPSRUJBUX6LsxTHPVGyhr+EaN4PoL8MZFFr3SD+tiofmrMRZSDGGVda0mOPZxU
4D8r21jO49aZP5MLOtNa9Ln8klq65ELZCUsVWOmSGT62PLRPcZT9owblBHshEq5c
z7r3x7v0n6OQqnvxpxoW53l1sxxbI5c7f/ExMBY72X5vH71F+CHV43sjP7yRc0NA
1E+7t/JovIHos9MzpfE2P3nOcGWQlVReZycGpERv69IFPdiQwQQ6GvU6AIocQ7VG
trVdtvK6eH0oe7qznz0BY95ksZe6Ce4p+kokt9QIxJF6JicOjyzMkIbUJdNtxekc
cwmXVQL9n4et/y3VCqljAK/esvUcchxUj6zXJfdFEglE5j+5uDGlte9/1g9IFwM7
erJDLPApDYBmTlaE1fNZ/tvQzHnlXOVe5l35hVpumhsXhvSIeQfdThCryzb+btdu
hJB8GXeSRvsgtsdSamhHesmPUcNRf4qlCZbE17Jfz8jEe0o4/zZyPfAElxC8NxNK
mwoIUSOwRbzA
=MB1n
-----END PGP PUBLIC KEY BLOCK-----
